src/topics/icons/v8.svg

<svg height="224" preserveAspectRatio="xMidYMid" viewBox="0 0 256 224" width="256" xmlns="http://www.w3.org/2000/svg"><path d="m0 24.7283265 31.4667955 58.853417 18.7935281-.1236416v-42.038155z" fill="#9a9a9a"/><path d="m205.059647 41.4199469-1.916445 42.038155h20.46269l32.146825-58.1115672z" fill="#9a9a9a"/><path d="m189.233518 25.3465347-40.801738 70.4757305-43.274572.6182081-40.1835301-71.7121468h-64.91185708l20.40086938 38.3289061h17.3098285l34.0014489 59.9661914 54.4023184 100.767931 53.165902-95.822265 36.474281-64.9118574h19.164453l21.019078-37.7106979zm-62.748128 128.5872973c-12.803462 0-23.182806-10.379282-23.182806-23.182806 0-12.803462 10.379344-23.182806 23.182806-23.182806 12.803524 0 23.182806 10.379344 23.182806 23.182806 0 12.803524-10.379282 23.182806-23.182806 23.182806z" fill="#4d4d4d"/><path d="m168.973972 83.593675c6.44958-8.711604 10.26411-19.4910524 10.26411-31.161648 0-28.9573648-23.479794-52.432027-52.443588-52.432027-28.963856 0-52.4435875 23.4746622-52.4435875 52.432027 0 11.6705956 3.8145299 22.450044 10.2641102 31.1617098-12.8179281 11.5394735-20.8777552 28.2594692-20.8777552 46.8621572 0 34.817854 28.2317122 63.043261 63.0572325 63.043261 34.82552 0 63.057233-28.225407 63.057233-63.043261 0-18.602688-8.059766-35.3226837-20.877755-46.862219zm-41.870374-44.0283526c6.999291 0 12.673267 5.6739763 12.673267 12.6732673s-5.673976 12.6732673-12.673267 12.6732673-12.673267-5.6739763-12.673267-12.6732673 5.673976-12.6732673 12.673267-12.6732673zm-.309104 108.8046366c-9.901345 0-17.928037-8.026691-17.928037-17.928037 0-9.901345 8.026692-17.928036 17.928037-17.928036 9.901346 0 17.928037 8.026691 17.928037 17.928036 0 9.901346-8.026691 17.928037-17.928037 17.928037z" fill="#3f89ec"/></svg>

<?xml version="1.0" encoding="UTF-8" standalone="no"?>
<svg width="256px" height="224px" viewBox="0 0 256 224" version="1.1" xmlns="http://www.w3.org/2000/svg" xmlns:xlink="http://www.w3.org/1999/xlink" preserveAspectRatio="xMidYMid">
	<g>
		<path d="M0,24.7283265 L31.4667955,83.5817435 L50.2603236,83.4581019 L50.2603236,41.4199469 L0,24.7283265 Z" fill="#9A9A9A"></path>
		<path d="M205.059647,41.4199469 L203.143202,83.4581019 L223.605892,83.4581019 L255.752717,25.3465347 L205.059647,41.4199469 Z" fill="#9A9A9A"></path>
		<path d="M189.233518,25.3465347 L148.43178,95.8222652 L105.157208,96.4404733 L64.9736779,24.7283265 L0.0618208162,24.7283265 L20.4626902,63.0572326 L37.7725187,63.0572326 L71.7739676,123.023424 L126.176286,223.791355 L179.342188,127.96909 L215.816469,63.0572326 L234.980922,63.0572326 L256,25.3465347 L189.233518,25.3465347 L189.233518,25.3465347 Z M126.48539,153.933832 C113.681928,153.933832 103.302584,143.55455 103.302584,130.751026 C103.302584,117.947564 113.681928,107.56822 126.48539,107.56822 C139.288914,107.56822 149.668196,117.947564 149.668196,130.751026 C149.668196,143.55455 139.288914,153.933832 126.48539,153.933832 L126.48539,153.933832 Z" fill="#4D4D4D"></path>
		<path d="M168.973972,83.593675 C175.423552,74.882071 179.238082,64.1026226 179.238082,52.432027 C179.238082,23.4746622 155.758288,0 126.794494,0 C97.830638,0 74.3509065,23.4746622 74.3509065,52.432027 C74.3509065,64.1026226 78.1654364,74.882071 84.6150167,83.5937368 C71.7970886,95.1332103 63.7372615,111.853206 63.7372615,130.455894 C63.7372615,165.273748 91.9689737,193.499155 126.794494,193.499155 C161.620014,193.499155 189.851727,165.273748 189.851727,130.455894 C189.851727,111.853206 181.791961,95.1332103 168.973972,83.593675 L168.973972,83.593675 Z M127.103598,39.5653224 C134.102889,39.5653224 139.776865,45.2392987 139.776865,52.2385897 C139.776865,59.2378807 134.102889,64.911857 127.103598,64.911857 C120.104307,64.911857 114.430331,59.2378807 114.430331,52.2385897 C114.430331,45.2392987 120.104307,39.5653224 127.103598,39.5653224 L127.103598,39.5653224 Z M126.794494,148.369959 C116.893149,148.369959 108.866457,140.343268 108.866457,130.441922 C108.866457,120.540577 116.893149,112.513886 126.794494,112.513886 C136.69584,112.513886 144.722531,120.540577 144.722531,130.441922 C144.722531,140.343268 136.69584,148.369959 126.794494,148.369959 L126.794494,148.369959 Z" fill="#3F89EC"></path>
	</g>
</svg>
